X: 976
T: Hastasın Zannım Vefâ Mahzunusun
C: Şevki Bey
O: Turkey
F: http://compmusic.upf.edu/node/140
N: ussak--sarki--curcuna--hastasin_zannim--sevki_bey
N: makam= ussak
N: form= sarki
N: usul= curcuna = 10/8
M: 10/8
L: 1/16
K: C _2/4B   
Q: 1/4=192
%%MIDI tuningsystem comma53
e4 d2d2 c2c2 B2B4A2  | A4 B2c4d4e4d2  | \
w:  Has *  ta *  sın   |  zan  | 
e4 d2d2 c2c2 B2B4A2  | 
w:  nım  *  ve *  fâ   | 
A16-A4  | A4 d2e12d2  | e2^3/4f2 g2a4a2 g2=f2 e2d2  | \
w:  mah  |  *  zû  |   | 
g4 e2e2 d2d2 c2d6  | 
w:  *  *  nu *  sun    | 
z4 f2e2 d2c2 B2A6  | e4 d2d2 c2c2 B2B4A2  | \
w:  SAZ  |  Has *  ta *  sın   | 
A4 B2c4d4e4d2  | 
w:  zan  | 
e4 d2d2 c2c2 B2B4A2  | A16-A4  | A4 d2e12d2  | \
w:  nım  *  ve *  fâ   |  mah  |  *  zû  | 
e2^3/4f2 g2a4a2 g2=f2 e2d2  | 
w:   | 
g4 e2e2 d2d2 c2d6  | z4 f2e2 d2e2 c2d6  | \
w:  *  *  nu *  sun    |  SAZ  | 
a4 g2f4e4d4c2  | d4 e2^3/4f4g4a4z2  | 
w:  Söy *  le  gön  |  lüm   | 
e4 d2d2 c2c2 B2B4A2  | A4 ded2 c2B2 A2G6  | \
w:  sen  *  ki *  min   |  mef  | 
d2c2 d2e2 d2c2 B2c6  | 
w:  tû  | 
c2B2 c2d2 B2B2 A2A2 B2c2  | B4 A2G2 A2A8-A2  | \
w:   |  *  *  nu *  sun    | 
z4 f2e2 d2e2 c2d6  | 
w:  SAZ  | 
a4 g2f4e4d4c2  | d4 e2^3/4f4g4a4z2  | \
w:  Söy *  le  gön  |  lüm   | 
e4 d2d2 c2c2 B2B4A2  | A4 ded2 c2B2 A2G6  | 
w:  sen  *  ki *  min   |  mef  | 
d2c2 d2e2 d2c2 B2c6  | c2B2 c2d2 B2B2 A2A2 B2c2  | \
w:  tû  |   | 
B4 A2G2 A2A8-A2  | 
w:  *  *  nu *  sun    | 
c8-c2B2 d2c6  | c6c4c4e4d2  | d18c2  | e4 d2d2 c2c2 B2B4A2  | A16-A4  | 
w:  SAZ  |  Deşt_ i  aş  |  kın   |  şüp *  he *  siz   |  Mec  | 
A4 d2e12d2  | e2^3/4f2 g2a4a2 g2=f2 e2d2  | \
w:  *  nû  |   | 
g4 e2e2 d2d2 c2d6  | c8-c2B2 d2c6  | 
w:  *  *  nu *  sun    |  SAZ  | 
c6c4c4e4d2  | d18c2  | e4 d2d2 c2c2 B2B4A2  | A16-A4  | \
w:  Deşt_ i  aş  |  kın   |  şüp *  he *  siz   |  Mec  | 
A4 d2e12d2  | 
w:  *  nû  | 
e2^3/4f2 g2a4a2 g2=f2 e2d2  | g4 e2e2 d2d2 c2d6  | \
w:   |  *  *  nu *  sun    | 
z4 f2e2 d2e2 c2d6  | 
w:  SAZ  | 
a4 g2f4e4d4c2  | d4 e2^3/4f4g4a4z2  | \
w:  Söy *  le  gön  |  lüm   | 
e4 d2d2 c2c2 B2B4A2  | A4 ded2 c2B2 A2G6  | 
w:  sen  *  ki *  min   |  mef  | 
d2c2 d2e2 d2c2 B2c6  | c2B2 c2d2 B2B2 A2A2 B2c2  | \
w:  tû  |   | 
B4 A2G2 A2A8-A2  | 
w:  *  *  nu *  sun    | 
|


